public/svg/broker-info-eight-active.svg

<svg width="70" height="70" viewBox="0 0 70 70" fill="none" xmlns="http://www.w3.org/2000/svg">
<g clip-path="url(#clip0_229_3663)">
<path d="M63.1565 54.4285C64.5393 52.5272 65.2887 50.239 65.2985 47.8881C65.3134 47.579 65.2049 47.2766 64.9968 47.0475C64.7887 46.8184 64.4982 46.6814 64.189 46.6666C63.5492 46.6464 63.0088 47.1373 62.9675 47.7761C62.9763 49.6393 62.4024 51.4586 61.326 52.9795C59.0499 55.8541 54.7309 56 53.8874 56C53.243 56 52.7207 56.5223 52.7207 57.1666C52.7207 57.8109 53.243 58.3333 53.8874 58.3333C54.9187 58.3333 60.2119 58.1455 63.1565 54.4285Z" fill="#ffffff"/>
<path d="M69.0247 39.3994C66.15 27.1832 59.759 20.1051 55.1437 16.4079C60.9315 16.8442 62.7947 19.2522 62.8495 19.3246C63.215 19.8463 63.9315 19.9784 64.459 19.6213C64.9866 19.2642 65.1301 18.5499 64.7815 18.0167C64.6975 17.8907 63.077 15.5761 58.3648 14.5167C59.5697 13.5262 60.2825 12.0593 60.3167 10.4999C60.1607 7.9145 58.3608 5.72213 55.8553 5.06556C55.9581 4.22283 56.0103 3.3747 56.0117 2.52573C56.0104 1.74359 55.6174 1.01411 54.9649 0.582862C54.3124 0.151614 53.4872 0.075969 52.7672 0.381394C52.1782 0.648065 51.6311 0.999019 51.1432 1.42323C50.5706 2.0116 49.7824 2.34036 48.9615 2.33323C48.1419 2.339 47.3553 2.01038 46.7833 1.42323C44.7273 -0.475711 41.5571 -0.475711 39.501 1.42323C38.9284 2.01288 38.1389 2.34182 37.317 2.33323C36.4975 2.34004 35.7109 2.01123 35.14 1.42323C34.6533 0.99993 34.1079 0.649398 33.5207 0.38256C32.8011 0.0791827 31.9775 0.155861 31.3263 0.586853C30.6752 1.01784 30.2827 1.74601 30.2808 2.52689C30.2808 5.42956 30.8548 10.6072 34.489 14.0839C32.5791 15.2452 30.7953 16.6024 29.1667 18.1334V9.33323C29.1667 6.67323 25.4042 4.66656 20.4167 4.66656C15.4292 4.66656 11.6667 6.67323 11.6667 9.33323V21.0874C7.57517 21.4957 4.66667 23.3332 4.66667 25.6666V55.3407C1.848 56.0979 0 57.6332 0 59.4999V65.3332C0 67.9932 3.7625 69.9999 8.75 69.9999C13.2102 69.9999 16.6833 68.3934 17.3682 66.1499C19.382 67.2162 21.6391 67.7389 23.9167 67.6666C28.9042 67.6666 32.6667 65.6599 32.6667 62.9999V47.8332C32.6667 45.1732 28.9042 43.1666 23.9167 43.1666C23.3322 43.1662 22.7481 43.1954 22.1667 43.2541V25.6666C22.1667 23.1116 18.6935 21.1656 14 21.0151V12.5637C15.9848 13.5725 18.1912 14.0664 20.4167 13.9999C22.6421 14.0664 24.8486 13.5725 26.8333 12.5637V20.5204C26.0645 21.3802 25.2922 22.3171 24.5303 23.3554C24.1815 23.8749 24.3046 24.5771 24.8094 24.9469C25.3142 25.3168 26.0208 25.2225 26.411 24.7332C27.1603 23.7188 27.9634 22.7452 28.8167 21.8166C28.826 21.8061 28.8342 21.7956 28.8435 21.7862C31.0706 19.3111 33.6859 17.2152 36.5867 15.5807C37.1586 15.8566 37.7636 16.0577 38.3868 16.1792L35.3792 18.9862C34.9082 19.4263 34.8831 20.1649 35.3232 20.6359C35.7632 21.1069 36.5018 21.132 36.9728 20.6919L41.6395 16.3391H42.0117V19.8391C42.0117 20.4834 42.534 21.0057 43.1783 21.0057C43.8227 21.0057 44.345 20.4834 44.345 19.8391V16.3332H44.7172L49.3838 20.6861C49.6885 20.9707 50.1219 21.0712 50.5208 20.9497C50.9197 20.8282 51.2235 20.5031 51.3177 20.0969C51.4119 19.6907 51.2822 19.2651 50.9775 18.9804L47.95 16.1617C48.5695 16.0391 49.1706 15.8372 49.7385 15.5609C52.822 17.2292 62.958 23.8209 66.7543 39.9337C68.4052 46.9477 67.8102 52.3132 64.9868 55.8774C61.3748 60.4332 55.1075 60.6666 53.8883 60.6666H37.3333C36.689 60.6666 36.1667 61.1889 36.1667 61.8332C36.1667 62.4776 36.689 62.9999 37.3333 62.9999H53.8883C55.8717 62.9999 62.6442 62.5904 66.815 57.3264C70.1027 53.1742 70.847 47.1426 69.0247 39.3994ZM8.75 57.1666C12.6082 57.1666 15.1667 58.5666 15.1667 59.4999C15.1667 60.4332 12.6082 61.8332 8.75 61.8332C4.89183 61.8332 2.33333 60.4332 2.33333 59.4999C2.33333 58.5666 4.89183 57.1666 8.75 57.1666ZM8.75 67.6666C4.89183 67.6666 2.33333 66.2666 2.33333 65.3332V62.7304C4.3181 63.7392 6.52456 64.233 8.75 64.1666C10.9754 64.233 13.1819 63.7392 15.1667 62.7304V65.3332C15.1667 66.2666 12.6082 67.6666 8.75 67.6666ZM23.9167 65.3332C20.0585 65.3332 17.5 63.9332 17.5 62.9999V51.0637C19.4848 52.0725 21.6912 52.5664 23.9167 52.4999C26.1421 52.5664 28.3486 52.0725 30.3333 51.0637V62.9999C30.3333 63.9332 27.7748 65.3332 23.9167 65.3332ZM30.3333 47.8332C30.3333 48.7666 27.7748 50.1666 23.9167 50.1666C20.0585 50.1666 17.5 48.7666 17.5 47.8332C17.5 46.8999 20.0585 45.4999 23.9167 45.4999C27.7748 45.4999 30.3333 46.8999 30.3333 47.8332ZM15.1667 47.8332V56.2694C13.1819 55.2606 10.9754 54.7668 8.75 54.8332C8.16556 54.8328 7.58148 54.862 7 54.9207V28.8971C8.98477 29.9059 11.1912 30.3997 13.4167 30.3332C15.6421 30.3997 17.8486 29.9059 19.8333 28.8971V43.6741C17.0147 44.4312 15.1667 45.9666 15.1667 47.8332ZM19.8333 25.6666C19.8333 26.5999 17.2748 27.9999 13.4167 27.9999C9.5585 27.9999 7 26.5999 7 25.6666C7 24.7332 9.5585 23.3332 13.4167 23.3332C17.2748 23.3332 19.8333 24.7332 19.8333 25.6666ZM20.4167 11.6666C16.5585 11.6666 14 10.2666 14 9.33323C14 8.39989 16.5585 6.99989 20.4167 6.99989C24.2748 6.99989 26.8333 8.39989 26.8333 9.33323C26.8333 10.2666 24.2748 11.6666 20.4167 11.6666ZM57.9833 10.4999C57.9833 12.4121 55.9125 13.9812 53.3167 13.9999C52.8825 13.9971 52.4499 13.9475 52.0263 13.8517C53.7196 12.0452 54.8966 9.81702 55.4342 7.40006C56.8385 7.81384 57.8486 9.0421 57.9833 10.4999ZM33.6793 3.24323C34.6646 4.16645 35.9668 4.67598 37.317 4.66656C38.668 4.6767 39.9712 4.16711 40.957 3.24323C41.5337 2.66099 42.3192 2.33342 43.1387 2.33342C43.9582 2.33342 44.7437 2.66099 45.3203 3.24323C46.3061 4.16781 47.61 4.67748 48.9615 4.66656C50.3129 4.677 51.6166 4.16739 52.6027 3.24323C52.926 2.95748 53.2857 2.71583 53.6725 2.52456C53.6725 4.69106 53.27 10.0472 49.511 12.9837C48.6653 13.6189 47.6402 13.9697 46.5827 13.9859C47.5926 12.2512 48.392 10.4022 48.9638 8.47806C49.0755 8.07626 48.9644 7.64538 48.6723 7.34774C48.3802 7.0501 47.9514 6.93091 47.5476 7.03507C47.1438 7.13923 46.8262 7.45092 46.7145 7.85273C46.0683 10.0458 45.075 12.1211 43.7722 13.9999H42.5728C41.2726 12.1195 40.2791 10.0446 39.6293 7.85273C39.4563 7.23191 38.8128 6.86889 38.192 7.04189C37.5712 7.2149 37.2082 7.85841 37.3812 8.47923C37.9535 10.405 38.7537 12.2556 39.7647 13.9917C38.686 13.9862 37.6378 13.6331 36.7757 12.9849C33.0167 10.0496 32.6142 4.69339 32.6142 2.53389C33.0008 2.71913 33.3594 2.95792 33.6793 3.24323Z" fill="#ffffff"/>
<path d="M63.1565 54.4286C64.5393 52.5273 65.2887 50.2392 65.2985 47.8883C65.3134 47.5791 65.2049 47.2768 64.9968 47.0477C64.7887 46.8186 64.4982 46.6816 64.189 46.6668C63.5483 46.6441 63.0064 47.1363 62.9675 47.7763C62.9763 49.6394 62.4024 51.4588 61.326 52.9796C59.0499 55.8543 54.7309 56.0001 53.8874 56.0001C53.243 56.0001 52.7207 56.5224 52.7207 57.1668C52.7207 57.8111 53.243 58.3334 53.8874 58.3334C54.9187 58.3334 60.2119 58.1456 63.1565 54.4286Z" fill="#ffffff"/>
<path d="M34.553 42.105L35.317 43.948C36.498 43.555 38.422 43 39 43C39.838 43 40.462 43.208 41.184 43.448C41.959 43.707 42.838 44 44 44C45.177 44 47.078 43.079 47.447 42.895L46.552 41.106C45.831 41.466 44.521 42 44 42C43.162 42 42.538 41.792 41.816 41.552C41.041 41.293 40.162 41 39 41C38.771 41 38.474 41.037 38.143 41.099C38.702 39.95 39 38.561 39 37H42V35H38.626C38.584 34.893 38.542 34.784 38.501 34.683C38.243 34.052 38 33.455 38 32C38 30.631 38.521 29 41 29C43.224 29 44.021 31.227 44.052 31.316L45.948 30.683C45.898 30.533 44.679 27 41 27C37.313 27 36 29.583 36 32C36 33.491 36.234 34.35 36.478 35H34V37H37C37 39.467 36.108 41.328 34.553 42.105Z" fill="#ffffff"/>
</g>
<defs>
<clipPath id="clip0_229_3663">
<rect width="70" height="70" fill="white"/>
</clipPath>
</defs>
</svg>

<svg xmlns="http://www.w3.org/2000/svg" width="70" height="70" fill="none"><g fill="#fff" clip-path="url(#a)"><path d="M63.157 54.429a11.2 11.2 0 0 0 2.142-6.54 1.167 1.167 0 0 0-1.11-1.222c-.64-.02-1.18.47-1.221 1.11a8.93 8.93 0 0 1-1.642 5.203C59.05 55.854 54.731 56 53.887 56a1.167 1.167 0 1 0 0 2.333c1.032 0 6.325-.187 9.27-3.904"/><path d="M69.025 39.4c-2.875-12.217-9.266-19.295-13.881-22.992 5.788.436 7.65 2.844 7.706 2.917a1.167 1.167 0 0 0 1.931-1.308c-.084-.126-1.704-2.44-6.416-3.5a5.35 5.35 0 0 0 1.952-4.017 5.99 5.99 0 0 0-4.462-5.434q.154-1.265.157-2.54A2.333 2.333 0 0 0 52.767.38a6.7 6.7 0 0 0-1.624 1.042 3 3 0 0 1-2.181.91 3 3 0 0 1-2.179-.91 5.367 5.367 0 0 0-7.282 0 3 3 0 0 1-2.184.91 3 3 0 0 1-2.177-.91 6.7 6.7 0 0 0-1.62-1.04 2.333 2.333 0 0 0-3.24 2.144c0 2.903.575 8.08 4.209 11.557a32 32 0 0 0-5.322 4.05v-8.8c0-2.66-3.763-4.667-8.75-4.667-4.988 0-8.75 2.006-8.75 4.666v11.754c-4.092.409-7 2.246-7 4.58V55.34C1.848 56.098 0 57.633 0 59.5v5.833C0 67.993 3.763 70 8.75 70c4.46 0 7.933-1.607 8.618-3.85a13.1 13.1 0 0 0 6.549 1.517c4.987 0 8.75-2.007 8.75-4.667V47.833c0-2.66-3.763-4.666-8.75-4.666q-.878 0-1.75.087V25.667c0-2.555-3.474-4.501-8.167-4.652v-8.451A13.3 13.3 0 0 0 20.417 14a13.3 13.3 0 0 0 6.416-1.436v7.956a38 38 0 0 0-2.303 2.835 1.167 1.167 0 0 0 1.881 1.378 35 35 0 0 1 2.406-2.916l.026-.03a30.7 30.7 0 0 1 7.744-6.206 7.4 7.4 0 0 0 1.8.598l-3.008 2.807a1.167 1.167 0 0 0 1.594 1.706l4.666-4.353h.373v3.5a1.167 1.167 0 1 0 2.333 0v-3.506h.372l4.667 4.353a1.167 1.167 0 0 0 1.593-1.706l-3.027-2.818a7.4 7.4 0 0 0 1.788-.601c3.084 1.668 13.22 8.26 17.016 24.373 1.651 7.014 1.056 12.38-1.767 15.943-3.612 4.556-9.88 4.79-11.099 4.79H37.333a1.167 1.167 0 1 0 0 2.333h16.555c1.984 0 8.756-.41 12.927-5.674 3.288-4.152 4.032-10.183 2.21-17.927M8.75 57.166c3.858 0 6.417 1.4 6.417 2.333s-2.559 2.333-6.417 2.333-6.417-1.4-6.417-2.333 2.559-2.333 6.417-2.333m0 10.5c-3.858 0-6.417-1.4-6.417-2.334V62.73a13.3 13.3 0 0 0 6.417 1.437 13.3 13.3 0 0 0 6.417-1.437v2.603c0 .934-2.559 2.334-6.417 2.334m15.167-2.334c-3.859 0-6.417-1.4-6.417-2.333V51.064a13.3 13.3 0 0 0 6.417 1.436 13.3 13.3 0 0 0 6.416-1.436V63c0 .933-2.558 2.333-6.416 2.333m6.416-17.5c0 .934-2.558 2.334-6.416 2.334s-6.417-1.4-6.417-2.334c0-.933 2.558-2.333 6.417-2.333s6.416 1.4 6.416 2.333m-15.166 0v8.436a13.3 13.3 0 0 0-6.417-1.436q-.877 0-1.75.088V28.897a13.3 13.3 0 0 0 6.417 1.436 13.3 13.3 0 0 0 6.416-1.436v14.777c-2.818.757-4.666 2.293-4.666 4.16m4.666-22.166c0 .933-2.558 2.333-6.416 2.333S7 26.6 7 25.667s2.559-2.334 6.417-2.334 6.416 1.4 6.416 2.334m.584-14c-3.859 0-6.417-1.4-6.417-2.334C14 8.4 16.558 7 20.417 7s6.416 1.4 6.416 2.333-2.558 2.334-6.416 2.334M57.983 10.5c0 1.912-2.07 3.481-4.666 3.5a6 6 0 0 1-1.29-.148A13.8 13.8 0 0 0 55.433 7.4a3.575 3.575 0 0 1 2.55 3.1M33.68 3.243a5.27 5.27 0 0 0 3.638 1.424c1.351.01 2.654-.5 3.64-1.424a3.07 3.07 0 0 1 4.363 0 5.26 5.26 0 0 0 3.642 1.424c1.35.01 2.655-.5 3.64-1.424a5 5 0 0 1 1.07-.718c0 2.166-.402 7.522-4.161 10.459a5 5 0 0 1-2.928 1.002 25.2 25.2 0 0 0 2.38-5.508 1.167 1.167 0 1 0-2.248-.625A21.4 21.4 0 0 1 43.772 14h-1.2a21.6 21.6 0 0 1-2.943-6.147 1.167 1.167 0 1 0-2.248.626 25.3 25.3 0 0 0 2.384 5.513 5 5 0 0 1-2.99-1.007c-3.758-2.935-4.16-8.292-4.16-10.451.386.185.744.424 1.064.71"/><path d="M63.157 54.429a11.2 11.2 0 0 0 2.142-6.54 1.167 1.167 0 0 0-1.11-1.222 1.18 1.18 0 0 0-1.221 1.11 8.93 8.93 0 0 1-1.642 5.203C59.05 55.854 54.731 56 53.887 56a1.167 1.167 0 1 0 0 2.333c1.032 0 6.325-.187 9.27-3.904M34.553 42.105l.764 1.843C36.498 43.555 38.422 43 39 43c.838 0 1.462.208 2.184.448.775.259 1.654.552 2.816.552 1.177 0 3.078-.921 3.447-1.105l-.895-1.789c-.721.36-2.031.894-2.552.894-.838 0-1.462-.208-2.184-.448C41.041 41.293 40.162 41 39 41c-.229 0-.526.037-.857.099C38.702 39.95 39 38.561 39 37h3v-2h-3.374c-.042-.107-.084-.216-.125-.317C38.243 34.052 38 33.455 38 32c0-1.369.521-3 3-3 2.224 0 3.021 2.227 3.052 2.316l1.896-.633C45.898 30.533 44.679 27 41 27c-3.687 0-5 2.583-5 5 0 1.491.234 2.35.478 3H34v2h3c0 2.467-.892 4.328-2.447 5.105"/></g><defs><clipPath id="a"><path fill="#fff" d="M0 0h70v70H0z"/></clipPath></defs></svg>
